X:1
T:Sechs Duos
T:Sechs Duos
T:Fredrick Belcke
C:Fredrick Belcke
%%score 1 2
L:1/8
Q:1/4=116
M:4/4
K:Bb
V:1 bass nm="Trombone"
V:2 bass nm="Trombone"
V:1
"^Moderato""_No. 1"!f! !>!B,,4 .D,2 .F,2 | !>!B,8 | (C2 A,2) (.F,2 .F,2) | !>!D4 !>!B,4 | z8 | %5
!f! !>!B,,4 .D,2 .F,2 | !>!A,8 | .B,2 .D2 .B,2 z2 ::!f! !>!E4 .C2 .A,2 | !>!F,8 | !>!F4 .D2 .B,2 | %11
 !>!F,8- | F,2!p! .B,2 .D2 .F2 | (F2 E2 D2) z2 | (D2 C2)!<(! (B,2 C2)!<)! | !fermata!D8 || %16
!f! !>!B,,4 .D,2 .F,2 | !>!B,8 | (C2 A,2) (.F,2 .F,2) | !>!D4 !>!B,4 | z8 |!f! !>!B,,4 .D,2 .F,2 | %22
 !>!A,8 | .B,2 .D2 .B,2 z2 ::"_No. 2""^Allegro"!mf![Q:1/4=120] .B,,2 .D,2 .F,2 .B,2 | D8 | %26
 (F2 E2) (.C2 .A,2) | (F,8 | D,2) z2 z4 |!f! .B,,2 .D,2 .F,2 .B,2 | C8 | .D2 .B,2 .F,2 .D,2 :| %32
!p! (C2 F2) (.=E2 .D2) | (C4 A,4) | (.=E,2 .G,2!<(! .C2 .=E2)!<)! |!>(! (G4 =E2) z2!>)! | %36
!p! (A,2 F,2) (.G,2 .B,2) | (A,4 F,4) | (.=E,2 .G,2!<(! .C2 .=E2) | (.F2 ._E2 .D2 .C2)!<)! || %40
!mf! .B,,2 .D,2 .F,2 .B,2 | D8 | (F2 E2) (.C2 .A,2) | (F,8 | D,2) z2 z4 |!f! .B,,2 .D,2 .F,2 .B,2 | %46
 C8 | (.D.B,!<(!.F,.D,) B,,2 z2!<)! :: %48
"_No. 3""^Allegro assai"!mf![Q:1/4=130] .B,!<(!.C.D.E (.F2 .F2)!<)! | (!>!F4 D4) | %50
!<(! .A,.B,.C.D!<)! (.E2 .E2) | (!>!E4 C4) |!<(! .B,.C.D.E!<)! F2 !>!G2 | E2 !>!F2 D2 !>!FE | %54
"_dim." (.D.F.E.D) (.C.E.D.C) | .B,2 .D2 .B,2 z2 :| z8 |!p! .F,!<(!.G,.A,.B,!<)! (.C2 .C2) | %58
!>(! (C4 G,4)!>)! |!p! .=E,!<(!.F,.G,.A,!<)! (.B,2 .B,2) |!<(! .A,.B,.C.D!<)! (.C2 .C2) | %61
!<(! .D.E.F.G!<)! (.F2 .F2) |!>(! .F.A.G.F!>)!!<(! .=E.C.D.E | .F.=E.F.E .F._E.D.C!<)! || %64
!mf! .B,!<(!.C.D.E (.F2!<)! .F2) | (!>!F4 D4) |!<(! .A,.B,.C.D (E2 E2)!<)! | (!>!E4 C4) | %68
!<(! .B,.C.D.E!<)! F2 !>!G2 | E2 !>!F2 D2 !>!FE |"_dim." (.D.F.E.D) (.C.E.D.C) | %71
!mf! B,4- B,.D.C.B, ||!<(! .A,.B,.C.D!<)!!>(! E2 C2!>)! |!<(! .D.B,.F,.D, B,,2!<)! z2 | %74
 .F,.G,.A,!<(!.B, .C.F,.G,.A, | B,2!<)! z!ff! .B, .D2 .F2 | D2 z .B, .F,2 .D,2 | B,,4 z4 |] %78
V:2
"^No. 1" z8 |!f! !>!B,,4 .D,2 .F,2 | !>!A,8 | (B,2 F,2) (.D,2 .D,2) | !>!B,,4 .D,2 .F,2 | !>!B,8 | %6
 (C2 A,2) (.F,2 .F,2) | .D,2 .B,2 .D,2 z2 :: z8 |!f! !>!E4 .C2 .A,2 | !>!F,8 | %11
 !>!F4!>(! .D2 .B,2!>)! | .F,2!p! .D,2 .B,2 .D2 | (D2 C2 B,2) z2 | %14
 (F,2 E,2)!<(! (.D,.F,)(.A,.G,)!<)! | ^F,4 !fermata!D,4 || z8 |!f! !>!B,,4 .D,2 .=F,2 | !>!A,8 | %19
 (B,2 F,2) (.D,2 .D,2) | !>!B,,4 .D,2 .F,2 | !>!B,8 | (C2 A,2) (.F,2 .F,2) | .D,2 .B,2 .D,2 z2 :: %24
"^No. 2" z8 |!f! .B,,2 .D,2 .F,2 .B,2 | C8 | .D2 .B,2 .F,2 .D,2 |!mf! .B,,2 .D,2 .F,2 .B,2 | D8 | %30
 (F2 E2) (.C2 .A,2) | B,8 :|!p! (A,2 F,2) (.G,2 .B,2) | (A,4 F,4) | (.C,2 .=E,2!<(! .G,2 .C2)!<)! | %35
!>(! (=E4 C2) z2!>)! |!p! (C2 F2) (.=E2 .D2) | (C4 A,4) | (.C,2 .=E,2!<(! .G,2 .B,2) | %39
 (.A,2 .C2) (B,2 F,2)!<)! || z8 |!f! .B,,2 .D,2 .F,2 .B,2 | C8 | .D2 .B,2 .F,2 .D,2 | %44
!mf! .B,,2 .D,2 .F,2 .B,2 | D8 | (F2 E2) (.C2 .A,2) | B,8 :: z8 | %49
!mf!"^No. 3" .B,!<(!.C.D.E (.F2 .F2)!<)! | (!>!F4 C4) |!<(! .A,.B,.C!<)!.D (.E2 .E2) | %52
 (!>!D4 B,2) !^!=B,2 | C2 !^!A,2 B,2 !^!E,2 | (.F,.B,.D.F) (.F,.A,.C.F) | D2 .F,2 .D,2 z2 :| %56
!p! .F,!<(!.G,.A,.B,!<)! (.C2 .C2) |!>(! (A,4 F,4)!>)! |!p! .=E,!<(!.F,.G,.A,!<)! (.B,2 .B,2) | %59
 (B,4 G,4) | F,2 z2 z .A,.G,.F, | B,,2 z2 z .D.C.B, |!>(! .A,.C.B,.A,!>)!!<(! .G,.B,.A,.G,!<)! | %63
 F,2 z2 z4 || z8 |!mf! .B,!<(!.C.D.E (.F2 .F2)!<)! | (!>!F4 C4) |!<(! .A,.B,.C!<)!.D (.E2 .E2) | %68
 (!>!D4 B,2) !^!=B,2 | C2 !^!A,2 B,2 !^!E,2 | (.F,.B,.D.F) (.F,.A,.C.F) | %71
 .D.B,.F,.D,!>(! B,,2 z2!>)! || .F,.G,!<(!.A,.B, .C.F,.G,.A,!<)! |!>(! C4- C.D.C.B,!>)! | %74
 .A,.B,!<(!.C.D E2 C2 | D2!<)! z!ff! .B, .F,2 .D,2 | B,,2 z .D, .F,2 .D,2 | B,,4 z4 |] %78

